src/actions/symbolic/media-playlist-no-repeat-symbolic.svg

<svg version="1.1" viewBox="0 0 16 16" xmlns="http://www.w3.org/2000/svg">
 <defs>
  <style id="current-color-scheme" type="text/css">.ColorScheme-Text {
        color:#363636;
      }</style>
 </defs>
 <path d="m4.1211 2 1 1h7.8789l-2.5352 2.5352 0.70703 0.70703 3.5352-3.5352-0.70703-0.70703h-9.8789zm-1.1328 0.28125c-0.58954 0.34713-0.98828 0.98238-0.98828 1.7188v3.0391c0.064835-0.010837 0.1234-0.039062 0.19141-0.039062h0.80859v-3c0-0.46744 0.32386-0.84054 0.75586-0.95117l-0.76758-0.76758zm11.012 6.6797c-0.064835 0.010837-0.1234 0.039062-0.19141 0.039062h-0.80859v1.8789l1 1v-2.918zm-9.1719 0.79688-3.5352 3.5352 0.70703 0.70703h10c0.73637 0 1.3716-0.39874 1.7188-0.98828l-0.76758-0.76758c-0.11064 0.432-0.48374 0.75586-0.95117 0.75586h-9l2.5352-2.5352-0.70703-0.70703z" fill="#363636"/>
 <rect transform="rotate(45)" x="1.3137" y="-.5" width="20" height="1" ry="0" fill="#363636"/>
</svg>

<svg xmlns="http://www.w3.org/2000/svg" viewBox="0 0 16 16">
    <defs>
        <style id="current-color-scheme" type="text/css">
            .ColorScheme-Text{color:#050505;opacity:.7}
        </style>
    </defs>
    <path fill="#050505" fill-opacity=".7" d="m4.121 2 1 1H13l-2.535 2.535.707.707 3.535-3.535L14 2H4.121zm-1.133.281A1.99 1.99 0 0 0 2 4v3.04c.065-.012.123-.04.191-.04H3V4c0-.467.324-.84.756-.951l-.768-.768zM14 8.961c-.065.01-.123.039-.191.039H13v1.879l1 1V8.96zm-9.172.797-3.535 3.535L2 14h10a1.99 1.99 0 0 0 1.719-.988l-.768-.768a.983.983 0 0 1-.95.756H3l2.534-2.535-.707-.707z"/>
    <rect width="20" height="1" x="1.314" y="-.5" fill="#050505" fill-opacity=".7" ry="0" transform="rotate(45)"/>
</svg>
